X: 23996
T: Loftus Jones
R: reel
M: 4/4
K: Gmajor
|:g4 f2 e2|d3c Bc dB|cB AF G2 GA|Bc (3BBA GG GA|
Bc dB (3ccd ec|dd cB cB AG|(3FFF EF D2 (3DEF|
GA GF Ec (3ccc|de dB cB AF|G2 DD EE FF|
GG EE FF GG|AA FF GG AA|BB GG AA BB|c3A de dB|
cB AG FG AF|GE DC B,2 D2|1 G,8:|2 G,6 zB||
|:A2 F2 G2 E2|F2 D2 E3F|G2 B2 F2 B2|E4 F4|B2 (3cBB A2 (3BAA|
GA Bc B2 (3cBA|GA Bc dc (3BBA|GA FA E2 (3EEE|B,E GE B,E GE|
(3DDD DE DF AF|EG (3GGG EG AG|FA (3AAA FA AF|GB (3BBB GB GB|
GB GB GB GB|ef g2 f4|e4 zd ef|ga ge fg fd|
ef (3gfe de dB|(3ccc ec Bc dB|AG FE D2 (3DEF|GE DC B,D GB|
AG FE Dd dB|cB AG FG AF|GD B,D G2 z2:|

